src/assets/icons/svg/user-add.svg

<svg width="28" height="28" viewBox="0 0 28 28" fill="none" xmlns="http://www.w3.org/2000/svg">
<path d="M20.1019 14.0497C19.5639 13.7939 19.0149 13.5736 18.4562 13.389C20.2655 12.031 21.438 9.86863 21.438 7.4375C21.438 3.33648 18.1015 0 14.0005 0C9.8994 0 6.56297 3.33648 6.56297 7.4375C6.56297 9.87131 7.73809 12.0358 9.55071 13.3936C7.88996 13.9403 6.33164 14.7911 4.96773 15.913C2.46676 17.9701 0.727866 20.8395 0.0714516 23.9927C-0.134283 24.9806 0.112194 25.9954 0.747553 26.7767C1.3798 27.5541 2.3173 28 3.31962 28H16.7895C17.3936 28 17.8833 27.5103 17.8833 26.9062C17.8833 26.3022 17.3936 25.8125 16.7895 25.8125H3.31962C2.85269 25.8125 2.571 25.5519 2.44467 25.3965C2.22652 25.1283 2.14208 24.7791 2.21301 24.4385C3.34805 18.9864 8.15705 15.0037 13.7105 14.8694C13.8067 14.8731 13.9033 14.875 14.0005 14.875C14.0985 14.875 14.1961 14.8731 14.2933 14.8693C15.9951 14.9092 17.6319 15.2976 19.1629 16.0254C19.7085 16.2846 20.3609 16.0527 20.6202 15.5071C20.8796 14.9615 20.6476 14.309 20.1019 14.0497ZM14.2672 12.6808C14.1785 12.6792 14.0896 12.6784 14.0005 12.6784C13.9122 12.6784 13.8239 12.6792 13.7358 12.6809C10.9634 12.5426 8.75047 10.2436 8.75047 7.4375C8.75047 4.54262 11.1056 2.1875 14.0005 2.1875C16.8953 2.1875 19.2505 4.54262 19.2505 7.4375C19.2505 10.2429 17.0386 12.5414 14.2672 12.6808Z" fill="black"/>
<path d="M26.9062 21.7109H23.8984V18.7031C23.8984 18.099 23.4088 17.6094 22.8047 17.6094C22.2006 17.6094 21.7109 18.099 21.7109 18.7031V21.7109H18.7031C18.099 21.7109 17.6094 22.2006 17.6094 22.8047C17.6094 23.4088 18.099 23.8984 18.7031 23.8984H21.7109V26.9062C21.7109 27.5103 22.2006 28 22.8047 28C23.4088 28 23.8984 27.5103 23.8984 26.9062V23.8984H26.9062C27.5103 23.8984 28 23.4088 28 22.8047C28 22.2006 27.5103 21.7109 26.9062 21.7109Z" fill="black"/>
</svg>

<?xml version="1.0" encoding="iso-8859-1"?>
<!-- Generator: Adobe Illustrator 23.1.0, SVG Export Plug-In . SVG Version: 6.00 Build 0)  -->
<svg version="1.1" id="&#x421;&#x43B;&#x43E;&#x439;_1"
	 xmlns="http://www.w3.org/2000/svg" xmlns:xlink="http://www.w3.org/1999/xlink" x="0px" y="0px" viewBox="0 0 28 28"
	 style="enable-background:new 0 0 28 28;" xml:space="preserve">
<path d="M20.102,14.05c-0.538-0.256-1.087-0.476-1.646-0.661c1.809-1.358,2.982-3.52,2.982-5.951C21.438,3.336,18.101,0,14,0
	C9.899,0,6.563,3.336,6.563,7.438c0,2.434,1.175,4.598,2.988,5.956c-1.661,0.547-3.219,1.397-4.583,2.519
	c-2.501,2.057-4.24,4.927-4.896,8.08c-0.206,0.988,0.041,2.003,0.676,2.784C1.38,27.554,2.317,28,3.32,28h13.47
	c0.604,0,1.094-0.49,1.094-1.094c0-0.604-0.49-1.094-1.094-1.094H3.32c-0.467,0-0.749-0.261-0.875-0.416
	c-0.218-0.268-0.303-0.617-0.232-0.958c1.135-5.452,5.944-9.435,11.497-9.569c0.096,0.004,0.193,0.006,0.29,0.006
	c0.098,0,0.196-0.002,0.293-0.006c1.702,0.04,3.339,0.428,4.87,1.156c0.546,0.259,1.198,0.027,1.457-0.518
	C20.88,14.962,20.648,14.309,20.102,14.05z M14.267,12.681c-0.089-0.002-0.178-0.002-0.267-0.002c-0.088,0-0.177,0.001-0.265,0.002
	c-2.772-0.138-4.985-2.437-4.985-5.243c0-2.895,2.355-5.25,5.25-5.25c2.895,0,5.25,2.355,5.25,5.25
	C19.25,10.243,17.039,12.541,14.267,12.681z"/>
<path d="M26.906,21.711h-3.008v-3.008c0-0.604-0.49-1.094-1.094-1.094c-0.604,0-1.094,0.49-1.094,1.094v3.008h-3.008
	c-0.604,0-1.094,0.49-1.094,1.094c0,0.604,0.49,1.094,1.094,1.094h3.008v3.008c0,0.604,0.49,1.094,1.094,1.094
	c0.604,0,1.094-0.49,1.094-1.094v-3.008h3.008c0.604,0,1.094-0.49,1.094-1.094C28,22.201,27.51,21.711,26.906,21.711z"/>
</svg>
